X: 380
T: Once I Was Happy
M:3/4
L:1/8
B:O'Neill's 380
N:"Tenderly."
N:"collected by F. O'Neill"
N:Modal key signature is D Mixolydian.
Z:Transcribed by Chris Falt, cfalt@trytel.com
K:G
Ac|d2 A2 GE|c2 B2 AB|GE D2 D2|D4 Ac|
d2 d2 ed|c2 B2 AG|E2 F2 G2|A4 Ac|
d2 d2 ed|c2 B2 AG|E2 F2 G2|A4 Ac|
d2 A2 GE|c2 B2 AB|GE D2 D2|D4||


